X: 11
T: Poor But Happy At 53
C: Paidi Ban O'Broin
Z: Ralex
S: https://thesession.org/tunes/314#setting53323
R: reel
M: 4/4
L: 1/8
K: Emin
|:EFGA BE E2|B2Ac BE E2|DEFG AD D2|A2GB AFGF|
EFGA Be ^df|edBG A2GA|BGG2 AFF2|GAFG E2ED:|
|:edBA Bdef|g2 eg fd Bd|e2ef g2ga|gfed e2 ef|
gefd edBA|BGGF GFED|BGG2 AFF2|GAFG E4:|

%-------------------- TUNE SEPARATOR --------------------%

